X: 5
T: Father Kelly's Reel #4
T: Over the Bog Road
C: Fr Patrick Joseph Kelly
M: 4/4
L: 1/8
R: Reel
S: Breathnach (CR\'E V), 1999 p.70 #138
S: https://www.ibiblio.org/fiddlers/FARG_FAY.htm
K: G
F |\
FEDE G3A | (3Bcd gd BGGB | AGEG AGAc | (3Bcd gd BcAB |
GEDE G2 GA | (3Bcd eg BG G2 | (3Bcd ed (3Bcd gB | cedc BGG :|
|: f |\
gede g2 ga | (3bag (3agf gede | agea a^gab | c'abg agea |
gede gfga | (3bag (3agf gfed | (3Bcd ed (3Bcd gB | cedc BGG :|

%%sep 1 1 500

